symbols/web/agriculture/materialsymbolssharp/agriculture_wght700gradN25fill1_48px.svg

<svg xmlns="http://www.w3.org/2000/svg" height="48" width="48"><path d="M5.4 18.1v-3.45h9l3.45 3.45Zm6 18.8q2.4 0 4.025-1.6 1.625-1.6 1.625-3.95 0-2.4-1.625-4.05T11.4 25.65q-2.35 0-3.975 1.625T5.8 31.3q0 2.4 1.625 4t3.975 1.6Zm27.9.55q1.45 0 2.475-1 1.025-1 1.025-2.45 0-1.4-1.025-2.45Q40.75 30.5 39.3 30.5q-1.45 0-2.475 1.05-1.025 1.05-1.025 2.5 0 1.4 1 2.4t2.5 1ZM11.45 34.2q-1.2 0-2.025-.85T8.6 31.3q0-1.25.825-2.075.825-.825 2.025-.825t2.05.825q.85.825.85 2.025t-.85 2.075q-.85.875-2.05.875Zm27.85 7.3q-3.1 0-5.3-2.15-2.2-2.15-2.2-5.2 0-3.1 2.275-5.375T39.45 26.5q3.1 0 5.225 2.225Q46.8 30.95 46.8 34q0 3.05-2.225 5.275Q42.35 41.5 39.3 41.5Zm-28 0q-4.25 0-7.15-2.975-2.9-2.975-2.9-7.225 0-4.2 2.975-7.2t7.175-3q4.25 0 7.25 2.975t3 7.225q0 4.3-3 7.25T11.3 41.5ZM23 33q0-.35.025-.675.025-.325.025-.975 0-2.35-.875-4.575T19.25 22.7H21q1.75 0 3-1.375t1.25-3.175v-5.6l-2.35-2.2L20 13.3l-1.7-1.75 7.6-7.6 1.75 1.7-3 3L27 10.9h17.45v15.85q-1.1-.7-2.375-1.2t-2.625-.5q-3.7 0-6 2.375T30.35 33Z"/></svg>

<svg xmlns="http://www.w3.org/2000/svg" height="48" width="48"><path d="M5.4 18.1V14.65H14.4L17.85 18.1ZM11.4 36.9Q13.8 36.9 15.425 35.3Q17.05 33.7 17.05 31.35Q17.05 28.95 15.425 27.3Q13.8 25.65 11.4 25.65Q9.05 25.65 7.425 27.275Q5.8 28.9 5.8 31.3Q5.8 33.7 7.425 35.3Q9.05 36.9 11.4 36.9ZM39.3 37.45Q40.75 37.45 41.775 36.45Q42.8 35.45 42.8 34Q42.8 32.6 41.775 31.55Q40.75 30.5 39.3 30.5Q37.85 30.5 36.825 31.55Q35.8 32.6 35.8 34.05Q35.8 35.45 36.8 36.45Q37.8 37.45 39.3 37.45ZM11.45 34.2Q10.25 34.2 9.425 33.35Q8.6 32.5 8.6 31.3Q8.6 30.05 9.425 29.225Q10.25 28.4 11.45 28.4Q12.65 28.4 13.5 29.225Q14.35 30.05 14.35 31.25Q14.35 32.45 13.5 33.325Q12.65 34.2 11.45 34.2ZM39.3 41.5Q36.2 41.5 34 39.35Q31.8 37.2 31.8 34.15Q31.8 31.05 34.075 28.775Q36.35 26.5 39.45 26.5Q42.55 26.5 44.675 28.725Q46.8 30.95 46.8 34Q46.8 37.05 44.575 39.275Q42.35 41.5 39.3 41.5ZM11.3 41.5Q7.05 41.5 4.15 38.525Q1.25 35.55 1.25 31.3Q1.25 27.1 4.225 24.1Q7.2 21.1 11.4 21.1Q15.65 21.1 18.65 24.075Q21.65 27.05 21.65 31.3Q21.65 35.6 18.65 38.55Q15.65 41.5 11.3 41.5ZM23 33Q23 32.65 23.025 32.325Q23.05 32 23.05 31.35Q23.05 29 22.175 26.775Q21.3 24.55 19.25 22.7H21Q22.75 22.7 24 21.325Q25.25 19.95 25.25 18.15V12.55L22.9 10.35L20 13.3L18.3 11.55L25.9 3.95L27.65 5.65L24.65 8.65L27 10.9H44.45V26.75Q43.35 26.05 42.075 25.55Q40.8 25.05 39.45 25.05Q35.75 25.05 33.45 27.425Q31.15 29.8 30.35 33Z"/></svg>
